X: 541
T: Abbots Bromley Horn Dance, The
R: jig
M: 6/8
K: Gminor
g|d2 g B2 g|d2 g G2 B|ABc Bcd|cBA B2 g|
d2 g B2 g|d2 g G2 B|ABc Bcd|cBA G2||
g|e2 g efg|c2 e efg|ABc BAG|F2 A D2 b|
g2 b gab|e2 g efg|fed cBA|G3 G2||
[Cc]|[Dd][Ee][Dd] [E3e3]|[Dd][Ee][Dd] [G3g3]|[Dd][Ee][Dd] [Cc][B,B][A,A]|[B,2B2] [A,A] [G,2G2] [Cc]|
[Dd][Ee][Dd] [E3e3]|[Dd][Ee][Dd] [G3g3]|[Dd][Ee][Dd] [Cc][B,B][A,A]|[G,3G3] G2||

